; generated by PrusaSlicer 2.6.1+MacOS-arm64 on 2024-01-09 at 22:05:41 UTC


;
;

;
;

;
;
; 

; external perimeters extrusion width = 0.45mm
; perimeters extrusion width = 0.45mm
; infill extrusion width = 0.45mm
; solid infill extrusion width = 0.45mm
; top infill extrusion width = 0.40mm
; first layer extrusion width = 0.50mm

M73 P0 R399
M201 X2500 Y2500 Z200 E2500 ; sets maximum accelerations, mm/sec^2
M203 X200 Y200 Z40 E100 ; sets maximum feedrates, mm / sec
M204 P2000 R1200 T2000 ; sets acceleration (P, T) and retract acceleration (R), mm/sec^2
M205 X8.00 Y8.00 Z2.00 E10.00 ; sets the jerk limits, mm/sec
M205 S0 T0 ; sets the minimum extruding and travel feed rate, mm/sec
;TYPE:Custom
M17 ; enable steppers
M862.3 P "MK4" ; printer model check
M862.1 P0.4 ; nozzle diameter check
M555 X74.2 Y32.6395 W101.6 H105.64

G90 ; use absolute coordinates
M83 ; extruder relative mode

M140 S60 ; set bed temp

M104 S170 ; set extruder temp for bed leveling
M109 R170 ; wait for temp


M84 E ; turn off E motor

G28 ; home all without mesh bed level

G1 X42 Y-4 Z5 F4800

M302 S160 ; lower cold extrusion limit to 160C


G1 E-2 F2400 ; retraction


M84 E ; turn off E motor

G29 P9 X10 Y-4 W32 H4

M106 S100

G0 Z40 F10000

M190 S60 ; wait for bed temp

M107

;
; MBL
;
M84 E ; turn off E motor
G29 P1 ; invalidate mbl & probe print area
G29 P1 X0 Y0 W50 H20 C ; probe near purge place
G29 P3.2 ; interpolate mbl probes
G29 P3.13 ; extrapolate mbl outside probe area
G29 A ; activate mbl

; prepare for purge
M104 S215
G0 X0 Y-4 Z15 F4800 ; move away and ready for the purge
M109 S215

G92 E0
M569 S0 E ; set spreadcycle mode for extruder

;
; Extrude purge line
;
G92 E0 ; reset extruder position
G1 E2 F2400 ; deretraction after the initial one before nozzle cleaning
G0 E7 X15 Z0.2 F500 ; purge
G0 X25 E4 F500 ; purge
G0 X35 E4 F650 ; purge
G0 X45 E4 F800 ; purge
G0 X48 Z0.05 F8000 ; wipe, move close to the bed
G0 X51 Z0.2 F8000 ; wipe, move quickly away from the bed

G92 E0
M221 S100 ; set flow to 100%
G21 ; set units to millimeters
G90 ; use absolute coordinates
M83 ; use relative distances for extrusion
M900 K0.05 ; Filament gcode



M142 S36 ; set heatbreak target temp
M107
;LAYER_CHANGE
;Z:0.2
;HEIGHT:0.2
;BEFORE_LAYER_CHANGE
G92 E0.0
;0.2


G1 E-.8 F2100
G1 Z.2 F720
;AFTER_LAYER_CHANGE
;0.2
; printing object intake2 v2.stl id:0 copy 0
G1 Z.4
G1 X75.107 Y137.372 F12000
G1 Z.2 F720
G1 E.8 F1500
M204 P600
;TYPE:Perimeter
;WIDTH:0.499999
G1 F1200
G1 X75.107 Y37.547 E3.79398
G1 X75.566 Y37.602 E.01757
G1 X174.434 Y37.602 E3.7576
G1 X174.893 Y37.547 E.01757
G1 X174.893 Y137.372 E3.79398
G1 X75.167 Y137.372 E3.79021
M204 P1000
G1 X74.65 Y137.829 F12000
M204 P600
;TYPE:External perimeter
G1 F1200
G1 X74.65 Y37.09 E3.82871
G1 X75.457 Y37.09 E.03067
G1 X75.566 Y37.145 E.00464
G1 X174.434 Y37.145 E3.7576
M73 P0 R398
G1 X174.543 Y37.09 E.00464
G1 X175.35 Y37.09 E.03067
G1 X175.35 Y137.829 E3.82871
G1 X74.71 Y137.829 E3.82495
M204 P1000
G1 X74.754 Y137.443 F12000
G1 E-.64 F2100
;WIPE_START
G1 F9600
G1 X74.71 Y137.059 E-.16
;WIPE_END
G1 Z.4 F720
G1 X173.813 Y37.807 F12000
G1 Z.2 F720
G1 E.8 F1500
M204 P600
;TYPE:Solid infill
;WIDTH:0.500987
G1 F1200
G1 X174.482 Y38.476 E.03604
G1 X174.482 Y39.124 E.02468
G1 X173.37 Y38.013 E.05987
G1 X172.723 Y38.013 E.02464
G1 X174.482 Y39.772 E.09475
G1 X174.482 Y40.42 E.02468
G1 X172.075 Y38.013 E.12965
G1 X171.427 Y38.013 E.02468
G1 X174.482 Y41.067 E.16453
G1 X174.482 Y41.715 E.02468
G1 X170.779 Y38.013 E.19944
G1 X170.131 Y38.013 E.02468
G1 X174.482 Y42.363 E.23434
G1 X174.482 Y43.011 E.02468
G1 X169.484 Y38.013 E.26922
G1 X168.836 Y38.013 E.02468
G1 X174.482 Y43.659 E.30412
G1 X174.482 Y44.306 E.02464
G1 X168.188 Y38.013 E.339
G1 X167.54 Y38.013 E.02468
G1 X174.482 Y44.954 E.37391
G1 X174.482 Y45.602 E.02468
G1 X166.892 Y38.013 E.40881
G1 X166.245 Y38.013 E.02464
G1 X174.482 Y46.25 E.44369
G1 X174.482 Y46.898 E.02468
G1 X165.597 Y38.013 E.47859
G1 X164.949 Y38.013 E.02468
G1 X174.482 Y47.546 E.5135
G1 X174.482 Y48.193 E.02464
G1 X164.301 Y38.013 E.54837
G1 X163.653 Y38.013 E.02468
G1 X174.482 Y48.841 E.58328
G1 X174.482 Y49.489 E.02468
G1 X163.006 Y38.013 E.61816
G1 X162.358 Y38.013 E.02468
G1 X174.482 Y50.137 E.65306
G1 X174.482 Y50.785 E.02468
G1 X161.71 Y38.013 E.68797
G1 X161.062 Y38.013 E.02468
G1 X174.482 Y51.432 E.72284
G1 X174.482 Y52.08 E.02468
G1 X160.414 Y38.013 E.75775
G1 X159.767 Y38.013 E.02464
G1 X174.482 Y52.728 E.79263
G1 X174.482 Y53.376 E.02468
G1 X159.119 Y38.013 E.82753
G1 X158.471 Y38.013 E.02468
G1 X174.482 Y54.024 E.86244
G1 X174.482 Y54.671 E.02464
G1 X157.823 Y38.013 E.89731
G1 X157.175 Y38.013 E.02468
G1 X174.482 Y55.319 E.93222
G1 X174.482 Y55.967 E.02468
G1 X156.528 Y38.013 E.9671
G1 X155.88 Y38.013 E.02468
G1 X174.482 Y56.615 E1.002
G1 X174.482 Y57.263 E.02468
G1 X155.232 Y38.013 E1.0369
G1 X154.584 Y38.013 E.02468
G1 X174.482 Y57.91 E1.07178
G1 X174.482 Y58.558 E.02468
G1 X153.936 Y38.013 E1.10669
G1 X153.289 Y38.013 E.02464
G1 X174.482 Y59.206 E1.14156
G1 X174.482 Y59.854 E.02468
G1 X152.641 Y38.013 E1.17647
G1 X151.993 Y38.013 E.02468
G1 X174.482 Y60.502 E1.21137
G1 X174.482 Y61.149 E.02464
G1 X151.345 Y38.013 E1.24625
G1 X150.697 Y38.013 E.02468
M73 P0 R397
G1 X174.482 Y61.797 E1.28116
G1 X174.482 Y62.445 E.02468
G1 X150.05 Y38.013 E1.31603
G1 X149.402 Y38.013 E.02468
G1 X174.482 Y63.093 E1.35094
G1 X174.482 Y63.741 E.02468
G1 X148.754 Y38.013 E1.38584
G1 X148.106 Y38.013 E.02468
G1 X174.482 Y64.388 E1.42072
G1 X174.482 Y65.036 E.02468
G1 X147.458 Y38.013 E1.45563
G1 X146.81 Y38.013 E.02468
G1 X174.482 Y65.684 E1.49053
G1 X174.482 Y66.332 E.02468
G1 X146.163 Y38.013 E1.52541
G1 X145.515 Y38.013 E.02468
G1 X174.482 Y66.98 E1.56031
G1 X174.482 Y67.627 E.02464
G1 X144.867 Y38.013 E1.59519
G1 X144.219 Y38.013 E.02468
G1 X174.482 Y68.275 E1.63009
G1 X174.482 Y68.923 E.02468
G1 X143.571 Y38.013 E1.665
G1 X142.924 Y38.013 E.02464
G1 X174.482 Y69.571 E1.69988
G1 X174.482 Y70.219 E.02468
G1 X142.276 Y38.013 E1.73478
G1 X141.628 Y38.013 E.02468
G1 X174.482 Y70.866 E1.76966
G1 X174.482 Y71.514 E.02468
G1 X140.98 Y38.013 E1.80456
G1 X140.332 Y38.013 E.02468
G1 X174.482 Y72.162 E1.83947
G1 X174.482 Y72.81 E.02468
G1 X139.685 Y38.013 E1.87435
G1 X139.037 Y38.013 E.02468
G1 X174.482 Y73.458 E1.90925
G1 X174.482 Y74.106 E.02468
G1 X138.389 Y38.013 E1.94416
G1 X137.741 Y38.013 E.02468
G1 X174.482 Y74.753 E1.97903
G1 X174.482 Y75.401 E.02468
G1 X137.093 Y38.013 E2.01394
G1 X136.446 Y38.013 E.02464
G1 X174.482 Y76.049 E2.04882
G1 X174.482 Y76.697 E.02468
G1 X135.798 Y38.013 E2.08372
G1 X135.15 Y38.013 E.02468
G1 X174.482 Y77.345 E2.11862
G1 X174.482 Y77.992 E.02464
G1 X134.502 Y38.013 E2.1535
G1 X133.854 Y38.013 E.02468
G1 X174.482 Y78.64 E2.18841
G1 X174.482 Y79.288 E.02468
G1 X133.207 Y38.013 E2.22328
G1 X132.559 Y38.013 E.02468
M73 P0 R396
G1 X174.482 Y79.936 E2.25819
G1 X174.482 Y80.584 E.02468
G1 X131.911 Y38.013 E2.29309
G1 X131.263 Y38.013 E.02468
G1 X174.482 Y81.231 E2.32797
G1 X174.482 Y81.879 E.02468
G1 X130.615 Y38.013 E2.36288
G1 X129.968 Y38.013 E.02464
G1 X174.482 Y82.527 E2.39775
G1 X174.482 Y83.175 E.02468
G1 X129.32 Y38.013 E2.43266
G1 X128.672 Y38.013 E.02468
G1 X174.482 Y83.823 E2.46756
G1 X174.482 Y84.47 E.02464
G1 X128.024 Y38.013 E2.50244
G1 X127.376 Y38.013 E.02468
G1 X174.482 Y85.118 E2.53735
G1 X174.482 Y85.766 E.02468
G1 X126.729 Y38.013 E2.57222
G1 X126.081 Y38.013 E.02468
G1 X174.482 Y86.414 E2.60713
G1 X174.482 Y87.062 E.02468
G1 X125.433 Y38.013 E2.64203
G1 X124.785 Y38.013 E.02468
G1 X174.482 Y87.709 E2.67691
G1 X174.482 Y88.357 E.02468
G1 X124.137 Y38.013 E2.71181
G1 X123.49 Y38.013 E.02464
G1 X174.482 Y89.005 E2.74669
G1 X174.482 Y89.653 E.02468
G1 X122.842 Y38.013 E2.7816
G1 X122.194 Y38.013 E.02468
G1 X174.482 Y90.301 E2.8165
G1 X174.482 Y90.948 E.02464
G1 X121.546 Y38.013 E2.85138
G1 X120.898 Y38.013 E.02468
G1 X174.482 Y91.596 E2.88628
G1 X174.482 Y92.244 E.02468
M73 P0 R395
G1 X120.251 Y38.013 E2.92116
G1 X119.603 Y38.013 E.02468
G1 X174.482 Y92.892 E2.95607
G1 X174.482 Y93.54 E.02468
G1 X118.955 Y38.013 E2.99097
G1 X118.307 Y38.013 E.02468
G1 X174.482 Y94.187 E3.02585
G1 X174.482 Y94.835 E.02468
G1 X117.659 Y38.013 E3.06075
G1 X117.011 Y38.013 E.02468
G1 X174.482 Y95.483 E3.09566
G1 X174.482 Y96.131 E.02468
G1 X116.364 Y38.013 E3.13054
G1 X115.716 Y38.013 E.02468
G1 X174.482 Y96.779 E3.16544
G1 X174.482 Y97.426 E.02464
G1 X115.068 Y38.013 E3.20032
G1 X114.42 Y38.013 E.02468
G1 X174.482 Y98.074 E3.23522
G1 X174.482 Y98.722 E.02468
G1 X113.772 Y38.013 E3.27013
G1 X113.125 Y38.013 E.02464
M73 P1 R395
G1 X174.482 Y99.37 E3.30501
G1 X174.482 Y100.018 E.02468
G1 X112.477 Y38.013 E3.33991
G1 X111.829 Y38.013 E.02468
G1 X174.482 Y100.665 E3.37479
G1 X174.482 Y101.313 E.02468
G1 X111.181 Y38.013 E3.40969
G1 X110.533 Y38.013 E.02468
M73 P1 R394
G1 X174.482 Y101.961 E3.4446
G1 X174.482 Y102.609 E.02468
G1 X109.886 Y38.013 E3.47947
G1 X109.238 Y38.013 E.02468
G1 X174.482 Y103.257 E3.51438
G1 X174.482 Y103.905 E.02468
G1 X108.59 Y38.013 E3.54928
G1 X107.942 Y38.013 E.02468
G1 X174.482 Y104.552 E3.58416
G1 X174.482 Y105.2 E.02468
G1 X107.294 Y38.013 E3.61907
G1 X106.647 Y38.013 E.02464
G1 X174.482 Y105.848 E3.65394
G1 X174.482 Y106.496 E.02468
G1 X105.999 Y38.013 E3.68885
G1 X105.351 Y38.013 E.02468
G1 X174.482 Y107.144 E3.72375
G1 X174.482 Y107.791 E.02464
G1 X104.703 Y38.013 E3.75863
G1 X104.055 Y38.013 E.02468
G1 X174.482 Y108.439 E3.79354
G1 X174.482 Y109.087 E.02468
G1 X103.408 Y38.013 E3.82841
G1 X102.76 Y38.013 E.02468
G1 X174.482 Y109.735 E3.86332
G1 X174.482 Y110.383 E.02468
M73 P1 R393
G1 X102.112 Y38.013 E3.89822
G1 X101.464 Y38.013 E.02468
G1 X174.482 Y111.03 E3.9331
G1 X174.482 Y111.678 E.02468
G1 X100.816 Y38.013 E3.968
G1 X100.169 Y38.013 E.02464
G1 X174.482 Y112.326 E4.00288
G1 X174.482 Y112.974 E.02468
G1 X99.521 Y38.013 E4.03779
G1 X98.873 Y38.013 E.02468
G1 X174.482 Y113.622 E4.07269
G1 X174.482 Y114.269 E.02464
G1 X98.225 Y38.013 E4.10757
G1 X97.577 Y38.013 E.02468
G1 X174.482 Y114.917 E4.14247
G1 X174.482 Y115.565 E.02468
G1 X96.93 Y38.013 E4.17735
G1 X96.282 Y38.013 E.02468
G1 X174.482 Y116.213 E4.21226
G1 X174.482 Y116.861 E.02468
G1 X95.634 Y38.013 E4.24716
G1 X94.986 Y38.013 E.02468
M73 P1 R392
G1 X174.482 Y117.508 E4.28204
G1 X174.482 Y118.156 E.02468
G1 X94.338 Y38.013 E4.31694
G1 X93.691 Y38.013 E.02464
G1 X174.482 Y118.804 E4.35182
G1 X174.482 Y119.452 E.02468
G1 X93.043 Y38.013 E4.38673
G1 X92.395 Y38.013 E.02468
G1 X174.482 Y120.1 E4.42163
G1 X174.482 Y120.747 E.02464
G1 X91.747 Y38.013 E4.45651
G1 X91.099 Y38.013 E.02468
G1 X174.482 Y121.395 E4.49141
G1 X174.482 Y122.043 E.02468
G1 X90.451 Y38.013 E4.52632
G1 X89.804 Y38.013 E.02464
G1 X174.482 Y122.691 E4.56119
G1 X174.482 Y123.339 E.02468
G1 X89.156 Y38.013 E4.5961
G1 X88.508 Y38.013 E.02468
G1 X174.482 Y123.986 E4.63098
G1 X174.482 Y124.634 E.02468
M73 P1 R391
G1 X87.86 Y38.013 E4.66588
G1 X87.212 Y38.013 E.02468
G1 X174.482 Y125.282 E4.70079
G1 X174.482 Y125.93 E.02468
G1 X86.565 Y38.013 E4.73566
G1 X85.917 Y38.013 E.02468
G1 X174.482 Y126.578 E4.77057
G1 X174.482 Y127.225 E.02464
G1 X85.269 Y38.013 E4.80545
G1 X84.621 Y38.013 E.02468
G1 X174.482 Y127.873 E4.84035
G1 X174.482 Y128.521 E.02468
G1 X83.973 Y38.013 E4.87526
G1 X83.326 Y38.013 E.02464
M73 P2 R391
G1 X174.482 Y129.169 E4.91013
G1 X174.482 Y129.817 E.02468
G1 X82.678 Y38.013 E4.94504
G1 X82.03 Y38.013 E.02468
G1 X174.482 Y130.464 E4.97992
G1 X174.482 Y131.112 E.02468
M73 P2 R390
G1 X81.382 Y38.013 E5.01482
G1 X80.734 Y38.013 E.02468
G1 X174.482 Y131.76 E5.04972
G1 X174.482 Y132.408 E.02468
G1 X80.087 Y38.013 E5.0846
G1 X79.439 Y38.013 E.02468
G1 X174.482 Y133.056 E5.11951
G1 X174.482 Y133.704 E.02468
G1 X78.791 Y38.013 E5.15441
G1 X78.143 Y38.013 E.02468
G1 X174.482 Y134.351 E5.18929
G1 X174.482 Y134.999 E.02468
G1 X77.495 Y38.013 E5.22419
G1 X76.848 Y38.013 E.02464
G1 X174.482 Y135.647 E5.25907
G1 X174.482 Y136.295 E.02468
G1 X76.2 Y38.013 E5.29398
G1 X75.552 Y38.013 E.02468
M73 P2 R389
G1 X174.482 Y136.943 E5.32888
G1 X174.482 Y136.961 E.00069
G1 X173.852 Y136.961 E.024
G1 X75.518 Y38.627 E5.29678
G1 X75.518 Y39.275 E.02468
G1 X173.204 Y136.961 E5.26187
G1 X172.556 Y136.961 E.02468
G1 X75.518 Y39.923 E5.22697
G1 X75.518 Y40.571 E.02468
G1 X171.908 Y136.961 E5.19206
G1 X171.261 Y136.961 E.02464
G1 X75.518 Y41.218 E5.15721
G1 X75.518 Y41.866 E.02468
G1 X170.613 Y136.961 E5.12231
G1 X169.965 Y136.961 E.02468
G1 X75.518 Y42.514 E5.0874
G1 X75.518 Y43.162 E.02468
M73 P2 R388
G1 X169.317 Y136.961 E5.0525
G1 X168.669 Y136.961 E.02468
G1 X75.518 Y43.81 E5.01759
G1 X75.518 Y44.457 E.02464
G1 X168.022 Y136.961 E4.98274
G1 X167.374 Y136.961 E.02468
G1 X75.518 Y45.105 E4.94784
G1 X75.518 Y45.753 E.02468
G1 X166.726 Y136.961 E4.91293
G1 X166.078 Y136.961 E.02468
G1 X75.518 Y46.401 E4.87803
G1 X75.518 Y47.049 E.02468
G1 X165.43 Y136.961 E4.84312
G1 X164.782 Y136.961 E.02468
G1 X75.518 Y47.697 E4.80822
G1 X75.518 Y48.344 E.02464
G1 X164.135 Y136.961 E4.77337
G1 X163.487 Y136.961 E.02468
M73 P2 R387
G1 X75.518 Y48.992 E4.73846
G1 X75.518 Y49.64 E.02468
G1 X162.839 Y136.961 E4.70356
G1 X162.191 Y136.961 E.02468
G1 X75.518 Y50.288 E4.66866
G1 X75.518 Y50.936 E.02468
G1 X161.543 Y136.961 E4.63375
G1 X160.896 Y136.961 E.02464
G1 X75.518 Y51.583 E4.5989
G1 X75.518 Y52.231 E.02468
G1 X160.248 Y136.961 E4.564
G1 X159.6 Y136.961 E.02468
G1 X75.518 Y52.879 E4.52909
G1 X75.518 Y53.527 E.02468
M73 P3 R387
G1 X158.952 Y136.961 E4.49419
G1 X158.304 Y136.961 E.02468
G1 X75.518 Y54.175 E4.45928
G1 X75.518 Y54.822 E.02464
G1 X157.657 Y136.961 E4.42443
G1 X157.009 Y136.961 E.02468
M73 P3 R386
G1 X75.518 Y55.47 E4.38953
G1 X75.518 Y56.118 E.02468
G1 X156.361 Y136.961 E4.35462
G1 X155.713 Y136.961 E.02468
G1 X75.518 Y56.766 E4.31972
G1 X75.518 Y57.414 E.02468
G1 X155.065 Y136.961 E4.28481
G1 X154.418 Y136.961 E.02464
G1 X75.518 Y58.061 E4.24996
G1 X75.518 Y58.709 E.02468
G1 X153.77 Y136.961 E4.21506
G1 X153.122 Y136.961 E.02468
G1 X75.518 Y59.357 E4.18015
G1 X75.518 Y60.005 E.02468
G1 X152.474 Y136.961 E4.14525
G1 X151.826 Y136.961 E.02468
G1 X75.518 Y60.653 E4.11034
G1 X75.518 Y61.3 E.02464
G1 X151.179 Y136.961 E4.07549
G1 X150.531 Y136.961 E.02468
M73 P3 R385
G1 X75.518 Y61.948 E4.04059
G1 X75.518 Y62.596 E.02468
G1 X149.883 Y136.961 E4.00568
G1 X149.235 Y136.961 E.02468
G1 X75.518 Y63.244 E3.97078
G1 X75.518 Y63.892 E.02468
G1 X148.587 Y136.961 E3.93587
G1 X147.94 Y136.961 E.02464
G1 X75.518 Y64.539 E3.90102
G1 X75.518 Y65.187 E.02468
G1 X147.292 Y136.961 E3.86612
G1 X146.644 Y136.961 E.02468
G1 X75.518 Y65.835 E3.83121
G1 X75.518 Y66.483 E.02468
G1 X145.996 Y136.961 E3.79631
G1 X145.348 Y136.961 E.02468
G1 X75.518 Y67.131 E3.7614
G1 X75.518 Y67.778 E.02464
G1 X144.701 Y136.961 E3.72655
G1 X144.053 Y136.961 E.02468
G1 X75.518 Y68.426 E3.69165
G1 X75.518 Y69.074 E.02468
M73 P3 R384
G1 X143.405 Y136.961 E3.65674
G1 X142.757 Y136.961 E.02468
G1 X75.518 Y69.722 E3.62184
G1 X75.518 Y70.37 E.02468
G1 X142.109 Y136.961 E3.58694
G1 X141.462 Y136.961 E.02464
G1 X75.518 Y71.017 E3.55208
G1 X75.518 Y71.665 E.02468
G1 X140.814 Y136.961 E3.51718
G1 X140.166 Y136.961 E.02468
G1 X75.518 Y72.313 E3.48228
G1 X75.518 Y72.961 E.02468
G1 X139.518 Y136.961 E3.44737
G1 X138.87 Y136.961 E.02468
G1 X75.518 Y73.609 E3.41247
G1 X75.518 Y74.256 E.02464
G1 X138.223 Y136.961 E3.37762
G1 X137.575 Y136.961 E.02468
G1 X75.518 Y74.904 E3.34271
G1 X75.518 Y75.552 E.02468
G1 X136.927 Y136.961 E3.30781
G1 X136.279 Y136.961 E.02468
G1 X75.518 Y76.2 E3.2729
G1 X75.518 Y76.848 E.02468
G1 X135.631 Y136.961 E3.238
G1 X134.983 Y136.961 E.02468
M73 P3 R383
G1 X75.518 Y77.496 E3.20309
G1 X75.518 Y78.143 E.02464
G1 X134.336 Y136.961 E3.16824
G1 X133.688 Y136.961 E.02468
G1 X75.518 Y78.791 E3.13334
G1 X75.518 Y79.439 E.02468
G1 X133.04 Y136.961 E3.09843
G1 X132.392 Y136.961 E.02468
G1 X75.518 Y80.087 E3.06353
G1 X75.518 Y80.735 E.02468
G1 X131.744 Y136.961 E3.02862
G1 X131.097 Y136.961 E.02464
G1 X75.518 Y81.382 E2.99377
G1 X75.518 Y82.03 E.02468
G1 X130.449 Y136.961 E2.95887
G1 X129.801 Y136.961 E.02468
G1 X75.518 Y82.678 E2.92396
G1 X75.518 Y83.326 E.02468
